X:307
T: Der Engel und die Hirten (4-8), S. 10
N: P0569
O: Lothringen
S: PINCK, Louis: Verklingende Weisen Bd 4, Kassel 1939]
R: geistliches, religises Lied]
M: 3/4
L: 1/16
K: F
F4 | F8A4 | F4C4A4 | F4C4A4 | F8
A4 | A8c4 | A8c4 | B4G4B4 | A8
A2G2 | F8A4 | C8A4 | F8A2B2 | c8
F4 | F8F4 | F8F4 | F4G4A4 | F8
A4 | A8c4 | A8c4 | B4G4B4 | A8
A2G2 | F8A4 | C8A4 | F8A2B2 | c12 |
F4F4F4 | F4G4A4 | F8
A4 | A4B4c4 | A8c4 | c4d4d4 | d8
d4 | d4c4B4 | A12 | G8-G3F | F8
F4 | F4C4A4 | F4C4A4 | F4C4A3G | F8 |  |  |  |  |  |  |  |  |  |  |  |  |  |  |  |  |  |  | 
c4 | d4c4B4 | A12 | G8-G3F | F8

@@@ Tune index: 7857
